X: 13659
T: Follow Me Down To Milltown
R: barndance
M: 4/4
K: Dmajor
|:B|A2 FA A2 FA|B2 GB B2 dB|A2 FA A2 FD|EFGA BcdB|
AAFA A2 FA|BBGB B2 dB|AdcB AGFE|D2 CE D3:|
|:B|Adfd Adfd|Acec Acec|Adfd Adfd|edce d3 B|
Adfd Adfd|Acec gcec|d2 cB AGFE|DDCE D3:|

